Numix-GalliumOS/22/categories/applications-engineering.svg

<?xml version="1.0" encoding="UTF-8" standalone="no"?>
<svg
   xmlns:dc="http://purl.org/dc/elements/1.1/"
   xmlns:cc="http://creativecommons.org/ns#"
   xmlns:rdf="http://www.w3.org/1999/02/22-rdf-syntax-ns#"
   xmlns:svg="http://www.w3.org/2000/svg"
   xmlns="http://www.w3.org/2000/svg"
   xmlns:sodipodi="http://sodipodi.sourceforge.net/DTD/sodipodi-0.dtd"
   xmlns:inkscape="http://www.inkscape.org/namespaces/inkscape"
   viewBox="0 0 22 22"
   id="svg2"
   version="1.1"
   inkscape:version="0.91 r"
   sodipodi:docname="applications-engineering.svg"
   width="22"
   height="22">
  <metadata
     id="metadata68">
    <rdf:RDF>
      <cc:Work
         rdf:about="">
        <dc:format>image/svg+xml</dc:format>
        <dc:type
           rdf:resource="http://purl.org/dc/dcmitype/StillImage" />
        <dc:title />
      </cc:Work>
    </rdf:RDF>
  </metadata>
  <sodipodi:namedview
     pagecolor="#ffffff"
     bordercolor="#666666"
     borderopacity="1"
     objecttolerance="10"
     gridtolerance="10"
     guidetolerance="10"
     inkscape:pageopacity="0"
     inkscape:pageshadow="2"
     inkscape:window-width="1920"
     inkscape:window-height="1056"
     id="namedview66"
     showgrid="true"
     inkscape:zoom="19.666667"
     inkscape:cx="22.047356"
     inkscape:cy="17.233926"
     inkscape:window-x="0"
     inkscape:window-y="24"
     inkscape:window-maximized="1"
     inkscape:current-layer="svg2">
    <inkscape:grid
       type="xygrid"
       id="grid4196" />
  </sodipodi:namedview>
  <defs
     id="defs4" />
  <path
     style="color:#000000;font-style:normal;font-variant:normal;font-weight:normal;font-stretch:normal;font-size:medium;line-height:normal;font-family:sans-serif;text-indent:0;text-align:start;text-decoration:none;text-decoration-line:none;text-decoration-style:solid;text-decoration-color:#000000;letter-spacing:normal;word-spacing:normal;text-transform:none;direction:ltr;block-progression:tb;writing-mode:lr-tb;baseline-shift:baseline;text-anchor:start;white-space:normal;clip-rule:nonzero;display:inline;overflow:visible;visibility:visible;opacity:1;isolation:auto;mix-blend-mode:normal;color-interpolation:sRGB;color-interpolation-filters:linearRGB;solid-color:#000000;solid-opacity:1;fill:#6fad64;fill-opacity:1;fill-rule:nonzero;stroke:none;stroke-width:0.68099999;stroke-linecap:butt;stroke-linejoin:miter;stroke-miterlimit:4;stroke-dasharray:none;stroke-dashoffset:0;stroke-opacity:1;color-rendering:auto;image-rendering:auto;shape-rendering:auto;text-rendering:auto;enable-background:accumulate"
     d="M 13.447265,2 7.986328,3.0605469 7.958008,3.0771489 C 7.754416,3.194706 7.625051,3.3833554 7.565429,3.5996094 7.50581,3.8158644 7.5,4.5 7.5,4.5 l 4.5,0 0,-0.5 0.5,0 0,2.5 L 12,6.5 12,6 7.5,6 c 0,0 0.0058,0.684135 0.06543,0.900391 0.05962,0.216255 0.188986,0.404905 0.392578,0.522461 l 0.02832,0.0166 3.939453,0.762695 c 0.02626,0.01502 0.04164,0.02664 0.05176,0.04785 C 11.989524,8.275133 12,8.324089 12,8.402344 l 0,1.966796 -0.102539,0 c -0.309862,0 -0.565429,0.25558 -0.56543,0.56543 0,0.309851 0.255568,0.56543 0.56543,0.56543 l 0.602539,0 0,8 1,0 0,1.320312 c -3.35e-4,0.09877 0.07265,0.179489 0.163086,0.179688 l 0.173828,0 C 13.927352,20.9998 14.000336,20.919082 14,20.820312 L 14,19.5 l 1,0 0,-8 0.5,0 0,-2.5 0.5,0 0,0.21875 C 16,9.374371 16.1115,9.5 16.25,9.5 l 0.5,0 C 16.8885,9.5 17,9.374371 17,9.21875 l 0,-1.4375 C 17,7.625629 16.8885,7.5 16.75,7.5 l -0.5,0 C 16.1115,7.5 16,7.625629 16,7.78125 L 16,8 15.5,8 15.5,6.5 15,6.5 15,6 17.5,6 C 17.5,5.24986 16,4.5 15.25,4.5 16,4.5 17.5,3.75014 17.5,3 L 15,3 15,2 13.447265,2 Z"
     id="path20"
     inkscape:connector-curvature="0" />
  <path
     style="opacity:1;fill:#6fad64;fill-opacity:1;fill-rule:nonzero;stroke:none;stroke-width:0.75400001;stroke-linecap:round;stroke-linejoin:miter;stroke-miterlimit:4;stroke-dasharray:none;stroke-dashoffset:0;stroke-opacity:1"
     d="m 11,13.291015 c -0.991788,0 -1.983576,0.254146 -2.87207,0.762696 C 6.646633,14.901565 5.646205,16.357548 5.350586,18 L 4.25,18 C 4.1115,18 4,18.1115 4,18.25 l 0,1.5 C 4,19.8885 4.1115,20 4.25,20 c 0.25,0 9.177488,0 13.5,0 0.1385,0 0.25,-0.1115 0.25,-0.25 l 0,-1.5 C 18,18.1115 17.8885,18 17.75,18 l -1.100586,0 C 16.353795,16.357548 15.353367,14.901565 13.87207,14.053711 12.983576,13.54516 11.991788,13.291015 11,13.291015 Z m 0,2 c 0.648384,0 1.296769,0.166383 1.877929,0.499024 0.860867,0.492737 1.469723,1.291522 1.729493,2.209961 L 7.392578,18 C 7.652349,17.081561 8.261205,16.282776 9.122071,15.790039 9.703231,15.457398 10.351615,15.291015 11,15.291015 Z"
     id="rect4278"
     inkscape:connector-curvature="0"
     sodipodi:nodetypes="sscsssccssscssssccss" />
</svg>

<svg xmlns="http://www.w3.org/2000/svg" viewBox="0 0 22 22">
 <path d="m 13.447 2 -5.461 1.061 -0.028 0.017 c -0.204 0.118 -0.333 0.306 -0.393 0.522 -0.06 0.216 -0.065 0.9 -0.065 0.9 l 4.5 0 0 -0.5 0.5 0 0 2.5 l -0.5 0 0 -0.5 -4.5 0 c 0 0 0.006 0.684 0.065 0.9 0.06 0.216 0.189 0.405 0.393 0.522 l 0.028 0.017 3.939 0.763 c 0.026 0.015 0.042 0.027 0.052 0.048 c 0.012 0.025 0.022 0.074 0.022 0.152 l 0 1.967 -0.103 0 c -0.31 0 -0.565 0.256 -0.565 0.565 0 0.31 0.256 0.565 0.565 0.565 l 0.603 0 0 8 1 0 0 1.32 c 0 0.099 0.073 0.179 0.163 0.18 l 0.174 0 c 0.09 0 0.163 -0.081 0.163 -0.18 l 0 -1.32 l 1 0 0 -8 0.5 0 0 -2.5 0.5 0 0 0.219 c 0 0.156 0.111 0.281 0.25 0.281 l 0.5 0 c 0.139 0 0.25 -0.126 0.25 -0.281 l 0 -1.438 c 0 -0.156 -0.111 -0.281 -0.25 -0.281 l -0.5 0 c -0.139 0 -0.25 0.126 -0.25 0.281 l 0 0.219 -0.5 0 0 -1.5 -0.5 0 0 -0.5 2.5 0 c 0 -0.75 -1.5 -1.5 -2.25 -1.5 0.75 0 2.25 -0.75 2.25 -1.5 l -2.5 0 0 -1 -1.553 0" mix-blend-mode="normal" isolation="auto" white-space="normal" solid-opacity="1" solid-color="#000000" style="visibility:visible;shape-rendering:auto;color-interpolation-filters:linearRGB;fill:#6fad64;opacity:1;image-rendering:auto;fill-opacity:1;stroke:none;display:inline;color:#000;fill-rule:nonzero;color-rendering:auto;color-interpolation:sRGB"/>
 <path d="m 11 13.291 c -0.992 0 -1.984 0.254 -2.872 0.763 c -1.481 0.848 -2.482 2.304 -2.777 3.946 l -1.101 0 c -0.138 0 -0.25 0.111 -0.25 0.25 l 0 1.5 c 0 0.139 0.112 0.25 0.25 0.25 c 0.25 0 9.177 0 13.5 0 0.139 0 0.25 -0.111 0.25 -0.25 l 0 -1.5 c 0 -0.139 -0.111 -0.25 -0.25 -0.25 l -1.101 0 c -0.296 -1.642 -1.296 -3.098 -2.777 -3.946 -0.888 -0.509 -1.88 -0.763 -2.872 -0.763 m 0 2 c 0.648 0 1.297 0.166 1.878 0.499 0.861 0.493 1.47 1.292 1.729 2.21 l -7.215 0 c 0.26 -0.918 0.869 -1.717 1.729 -2.21 0.581 -0.333 1.23 -0.499 1.878 -0.499" style="fill:#6fad64;opacity:1;fill-opacity:1;stroke:none;fill-rule:nonzero"/>
</svg>
